X:7725
T:Turn Ye to Me
O:england
S:Digital Tradition, turnyeme
N:Words by Christopher North in 1816. tune ancient
D:Sung by Gordon Bok on Seal Djiril
M:3/4
L:1/8
Q:1/4=92
W:The stars are burning cheerily, cheerily
W:Ho-ro Mhai-ri-dhu, turn ye to me
W:The seamew is moaning drearily, drearily
W:Ho-ro Mhai-ri-dhu, turn ye to me
W:Cold is the stormwind that ruffles his breast
W:But warm are the downy plumes lining his nest
W:Cold blows the storm there, soft falls the snow there
W:Ho-ro Mhai-ri-dhu, turn ye to me
W:
W:The waves are dancing merrily, merrily
W:Ho-ro Mhai-ri-dhu, turn ye to me
W:The seabirds are wailing wearily, wearily
W:Ho-ro Mhai-ri-dhu, turn ye to me
W:Hushed be thy moaning, lone bird of the sea
W:Thy home on the rocks is a shelter to thee
W:Thy house the angry wave, mine but the lonely grave
W:Ho-ro Mhai-ri-dhu, turn ye to me
K:F
C2 |D4 C2|F3-G A2|A3G F2|A3B c2|\
A3-G F2|A3B c2|A2 G3F|F4 C2|
D2 D2 C2|F3-G A2|A3G F2|A3B c2|\
A3-G F2|A3B c2|A2 G3F|F6|
c2 d2 e2|f2 e2 d2|c2 d2 c2|A6|\
c2 d2 e2|f2 e2 d2|c2 A2 F2|G6|
c2 d2 e2|f2- e2 d2|c2 B2 A2|G3-A B2|\
A3-G F2|A3B c2|A2 G3F|F6||


